X: 4386
T: WOODLAND WHISPERS WALTZ
C: Stanley
R: Waltz
%R: waltz
B: James Kerr "Merry Melodies" v.4 p.42 #386
Z: 2016 John Chambers <jc:trillian.mit.edu>
M: 3/4
L: 1/4
K: D
%%slurgraces yes
%%graceslurs yes
F/G/ |\
AFd | (c2B) | (A3 | F)zA |\
GEF | (G2B) | AFG | A2F/G/ |\
AFd | (c2B) | (A3 | F)za |\
{ga}gfe | {de}dcA |
d3- | dz :|\
|: d/c/ |\
{cd}cBB | Bzc/B/ | {Bc}BAA | AzB/A/ |\
{AB}AGG | GzA/G/ | {GA}GFF | Fzd/c/ |\
{cd}cBB | Bzc/B/ | {Bc}BAA | Azb/a/ |
gfa | gfe | d3- | "_D.C."dz :|\
[K:A] |:\
{^B}czf | e3 | {^B}czf | e3 |\
agf |[1,3 (f2e) | fe^d | e3 :|\
[2,4 egb | a3- | azz |:\
c3 | c3 | c3- | cBA |
F3 | A3 | E3- | E3 |\
G3 | GFE | e3- | e2c |\
[1 (B2c) | (A2c) | B3- | B(ed) :|\
[2 (B2d) | (G2B) | A3- | Azz |]

%%sep 1 1 500
%%sep 1 1 500

